;FLAVOR:Marlin
;TIME:7392
;Filament used: 4.70833m
;Layer height: 0.1
;Generated with Cura_SteamEngine 3.5.0
M104 S225
M105
M109 S225
M82 ;absolute extrusion mode
G28 ;Home
G1 Z15.0 F6000 ;Move the platform down 15mm
G29
G92 E0
G1 F200 E3
G92 E0
G92 E0
G1 F1500 E-6.5
;LAYER_COUNT:60
;LAYER:0
M107
G0 F3600 X119.96 Y131.649 Z0.3
;TYPE:SKIRT
G1 F1500 E0
G1 F1800 X120.559 Y131.134 E0.03941
G1 X121.207 Y130.683 E0.0788
G1 X121.898 Y130.299 E0.11824
G1 X122.623 Y129.987 E0.15762
G1 X123.376 Y129.75 E0.197
G1 X124.15 Y129.591 E0.23642
G1 X124.935 Y129.51 E0.27579
G1 X125.337 Y129.5 E0.29586
G1 X174.663 Y129.5 E2.75674
G1 X175.452 Y129.54 E2.79615
G1 X176.232 Y129.659 E2.83552
G1 X176.997 Y129.857 E2.87494
G1 X177.737 Y130.131 E2.91431
G1 X178.446 Y130.479 E2.95371
G1 X179.117 Y130.897 E2.99315
G1 X179.741 Y131.38 E3.03252
G1 X180.314 Y131.923 E3.07191
G1 X180.829 Y132.522 E3.11132
G1 X181.28 Y133.17 E3.15071
G1 X181.664 Y133.861 E3.19014
G1 X181.976 Y134.586 E3.22952
G1 X182.213 Y135.339 E3.26891
G1 X182.372 Y136.113 E3.30833
G1 X182.453 Y136.898 E3.3477
G1 X182.463 Y137.3 E3.36776
G1 X182.463 Y162.7 E4.63497
G1 X182.423 Y163.489 E4.67439
G1 X182.304 Y164.269 E4.71375
G1 X182.106 Y165.034 E4.75318
G1 X181.832 Y165.774 E4.79254
G1 X181.484 Y166.483 E4.83195
G1 X181.162 Y167 E4.86233
G1 X181.28 Y167.17 E4.87266
G1 X181.664 Y167.861 E4.9121
G1 X181.976 Y168.586 E4.95148
G1 X182.213 Y169.339 E4.99086
G1 X182.372 Y170.113 E5.03028
G1 X182.453 Y170.898 E5.06965
G1 X182.463 Y171.3 E5.08971
G1 X182.463 Y196.7 E6.35693
G1 X182.423 Y197.489 E6.39634
G1 X182.304 Y198.269 E6.4357
G1 X182.106 Y199.034 E6.47513
G1 X181.832 Y199.774 E6.5145
G1 X181.484 Y200.483 E6.5539
G1 X181.066 Y201.154 E6.59334
G1 X180.583 Y201.778 E6.63271
G1 X180.04 Y202.351 E6.67209
G1 X179.441 Y202.866 E6.7115
G1 X178.793 Y203.317 E6.75089
G1 X178.102 Y203.701 E6.79033
G1 X177.377 Y204.013 E6.82971
G1 X176.624 Y204.25 E6.86909
G1 X175.85 Y204.409 E6.90851
G1 X175.065 Y204.49 E6.94789
G1 X174.663 Y204.5 E6.96795
G1 X125.337 Y204.5 E9.42883
G1 X124.548 Y204.46 E9.46825
G1 X123.768 Y204.341 E9.50761
G1 X123.003 Y204.143 E9.54703
G1 X122.263 Y203.869 E9.5864
G1 X121.554 Y203.521 E9.62581
G1 X120.883 Y203.103 E9.66525
G1 X120.259 Y202.62 E9.70461
G1 X119.686 Y202.077 E9.744
G1 X119.171 Y201.478 E9.78341
G1 X118.72 Y200.83 E9.8228
G1 X118.336 Y200.139 E9.86224
G1 X118.024 Y199.414 E9.90161
G1 X117.787 Y198.661 E9.941
G1 X117.628 Y197.887 E9.98042
G1 X117.547 Y197.102 E10.01979
G1 X117.537 Y196.7 E10.03985
G1 X117.537 Y171.3 E11.30706
G1 X117.577 Y170.511 E11.34648
G1 X117.696 Y169.731 E11.38584
G1 X117.894 Y168.966 E11.42527
G1 X118.168 Y168.226 E11.46464
G1 X118.516 Y167.517 E11.50404
G1 X118.838 Y167 E11.53443
G1 X118.72 Y166.83 E11.54475
G1 X118.336 Y166.139 E11.58419
G1 X118.024 Y165.414 E11.62357
G1 X117.787 Y164.661 E11.66295
G1 X117.628 Y163.887 E11.70237
G1 X117.547 Y163.102 E11.74174
G1 X117.537 Y162.7 E11.76181
G1 X117.537 Y137.3 E13.02902
G1 X117.577 Y136.511 E13.06843
G1 X117.696 Y135.731 E13.1078
G1 X117.894 Y134.966 E13.14722
G1 X118.168 Y134.226 E13.18659
G1 X118.516 Y133.517 E13.22599
G1 X118.934 Y132.846 E13.26543
G1 X119.417 Y132.222 E13.3048
G1 X119.96 Y131.649 E13.34418
G0 F3600 X120.353 Y131.83
G1 F1800 X120.948 Y131.342 E13.38258
G1 X121.59 Y130.919 E13.42093
G1 X122.273 Y130.564 E13.45934
G1 X122.988 Y130.283 E13.49766
G1 X123.73 Y130.077 E13.53608
G1 X124.488 Y129.949 E13.57443
G1 X125.337 Y129.9 E13.61686
G1 X174.663 Y129.9 E16.07775
G1 X175.431 Y129.94 E16.11611
G1 X176.191 Y130.059 E16.15449
G1 X176.934 Y130.257 E16.19285
G1 X177.653 Y130.531 E16.23124
G1 X178.339 Y130.878 E16.26959
G1 X178.986 Y131.294 E16.30797
G1 X179.586 Y131.775 E16.34634
G1 X180.133 Y132.316 E16.38472
G1 X180.621 Y132.911 E16.42311
G1 X181.044 Y133.553 E16.46147
G1 X181.399 Y134.236 E16.49987
G1 X181.68 Y134.951 E16.5382
G1 X181.886 Y135.693 E16.57662
G1 X182.014 Y136.451 E16.61497
G1 X182.063 Y137.3 E16.6574
G1 X182.063 Y162.7 E17.92461
G1 X182.023 Y163.468 E17.96297
G1 X181.904 Y164.228 E18.00135
G1 X181.706 Y164.971 E18.03972
G1 X181.432 Y165.69 E18.0781
G1 X181.085 Y166.376 E18.11646
G1 X180.682 Y167.003 E18.15364
G1 X181.044 Y167.553 E18.18649
G1 X181.399 Y168.236 E18.22489
G1 X181.68 Y168.951 E18.26322
G1 X181.886 Y169.693 E18.30164
G1 X182.014 Y170.451 E18.33999
G1 X182.063 Y171.3 E18.38242
G1 X182.063 Y196.7 E19.64963
G1 X182.023 Y197.468 E19.688
G1 X181.904 Y198.228 E19.72638
G1 X181.706 Y198.971 E19.76474
G1 X181.432 Y199.69 E19.80313
G1 X181.085 Y200.376 E19.84148
G1 X180.669 Y201.023 E19.87986
G1 X180.188 Y201.623 E19.91822
G1 X179.647 Y202.17 E19.9566
G1 X179.052 Y202.658 E19.995
G1 X178.41 Y203.081 E20.03335
G1 X177.727 Y203.436 E20.07176
G1 X177.012 Y203.717 E20.11008
G1 X176.27 Y203.923 E20.1485
G1 X175.512 Y204.051 E20.18685
G1 X174.663 Y204.1 E20.22928
G1 X125.337 Y204.1 E22.69017
G1 X124.569 Y204.06 E22.72853
G1 X123.809 Y203.941 E22.76691
G1 X123.066 Y203.743 E22.80527
G1 X122.347 Y203.469 E22.84366
G1 X121.661 Y203.122 E22.88202
G1 X121.014 Y202.706 E22.92039
G1 X120.414 Y202.225 E22.95876
G1 X119.867 Y201.684 E22.99714
G1 X119.379 Y201.089 E23.03553
G1 X118.956 Y200.447 E23.07389
G1 X118.601 Y199.764 E23.11229
G1 X118.32 Y199.049 E23.15062
G1 X118.114 Y198.307 E23.18904
G1 X117.986 Y197.549 E23.22739
G1 X117.937 Y196.7 E23.26982
G1 X117.937 Y171.3 E24.53703
G1 X117.977 Y170.532 E24.5754
G1 X118.096 Y169.772 E24.61377
G1 X118.294 Y169.029 E24.65214
G1 X118.568 Y168.31 E24.69052
G1 X118.915 Y167.624 E24.72888
G1 X119.318 Y166.997 E24.76606
G1 X118.956 Y166.447 E24.79891
G1 X118.601 Y165.764 E24.83732
G1 X118.32 Y165.049 E24.87564
G1 X118.114 Y164.307 E24.91406
G1 X117.986 Y163.549 E24.95241
G1 X117.937 Y162.7 E24.99484
G1 X117.937 Y137.3 E26.26205
G1 X117.977 Y136.532 E26.30042
G1 X118.096 Y135.772 E26.3388
G1 X118.294 Y135.029 E26.37716
G1 X118.568 Y134.31 E26.41555
G1 X118.915 Y133.624 E26.4539
G1 X119.331 Y132.977 E26.49228
G1 X119.812 Y132.377 E26.53064
G1 X120.353 Y131.83 E26.56903
G0 F3600 X120.745 Y132.016
G1 F1800 X121.335 Y131.557 E26.60632
G1 X121.971 Y131.162 E26.64367
G1 X122.645 Y130.838 E26.68098
G1 X123.35 Y130.588 E26.7183
G1 X124.078 Y130.414 E26.75564
G1 X124.82 Y130.319 E26.79296
G1 X125.337 Y130.3 E26.81877
G1 X174.663 Y130.3 E29.27966
G1 X175.41 Y130.34 E29.31698
G1 X176.148 Y130.459 E29.35427
G1 X176.87 Y130.657 E29.39162
G1 X177.566 Y130.93 E29.42892
G1 X178.229 Y131.277 E29.46626
G1 X178.852 Y131.692 E29.5036
G1 X179.426 Y132.171 E29.5409
G1 X179.947 Y132.708 E29.57823
G1 X180.406 Y133.298 E29.61552
G1 X180.801 Y133.934 E29.65288
G1 X181.125 Y134.608 E29.69018
G1 X181.375 Y135.313 E29.7275
G1 X181.549 Y136.041 E29.76485
G1 X181.644 Y136.783 E29.80217
G1 X181.663 Y137.3 E29.82798
G1 X181.663 Y162.7 E31.09519
G1 X181.623 Y163.447 E31.13251
G1 X181.504 Y164.185 E31.1698
G1 X181.306 Y164.907 E31.20716
G1 X181.033 Y165.603 E31.24445
G1 X180.686 Y166.266 E31.28179
G1 X180.271 Y166.889 E31.31913
G1 X180.176 Y167.003 E31.32654
G1 X180.406 Y167.298 E31.3452
G1 X180.801 Y167.934 E31.38255
G1 X181.125 Y168.608 E31.41986
G1 X181.375 Y169.313 E31.45718
G1 X181.549 Y170.041 E31.49452
G1 X181.644 Y170.783 E31.53184
G1 X181.663 Y171.3 E31.55765
G1 X181.663 Y196.7 E32.82487
G1 X181.623 Y197.447 E32.86219
G1 X181.504 Y198.185 E32.89948
G1 X181.306 Y198.907 E32.93683
G1 X181.033 Y199.603 E32.97413
G1 X180.686 Y200.266 E33.01147
G1 X180.271 Y200.889 E33.04881
G1 X179.792 Y201.463 E33.08611
G1 X179.255 Y201.984 E33.12344
G1 X178.665 Y202.443 E33.16073
G1 X178.029 Y202.838 E33.19808
G1 X177.355 Y203.162 E33.23539
G1 X176.65 Y203.412 E33.27271
G1 X175.922 Y203.586 E33.31005
G1 X175.18 Y203.681 E33.34738
G1 X174.663 Y203.7 E33.37319
G1 X125.337 Y203.7 E35.83407
G1 X124.59 Y203.66 E35.87139
G1 X123.852 Y203.541 E35.90869
G1 X123.13 Y203.343 E35.94604
G1 X122.434 Y203.07 E35.98334
G1 X121.771 Y202.723 E36.02067
G1 X121.148 Y202.308 E36.05802
G1 X120.574 Y201.829 E36.09531
G1 X120.053 Y201.292 E36.13264
G1 X119.594 Y200.702 E36.16994
G1 X119.199 Y200.066 E36.20729
G1 X118.875 Y199.392 E36.2446
G1 X118.625 Y198.687 E36.28192
G1 X118.451 Y197.959 E36.31926
G1 X118.356 Y197.217 E36.35658
G1 X118.337 Y196.7 E36.38239
G1 X118.337 Y171.3 E37.6496
G1 X118.377 Y170.553 E37.68692
G1 X118.496 Y169.815 E37.72422
G1 X118.694 Y169.093 E37.76157
G1 X118.967 Y168.397 E37.79887
G1 X119.314 Y167.734 E37.8362
G1 X119.729 Y167.111 E37.87355
G1 X119.824 Y166.997 E37.88095
G1 X119.594 Y166.702 E37.89961
G1 X119.199 Y166.066 E37.93696
G1 X118.875 Y165.392 E37.97427
G1 X118.625 Y164.687 E38.01159
G1 X118.451 Y163.959 E38.04894
G1 X118.356 Y163.217 E38.08626
G1 X118.337 Y162.7 E38.11207
G1 X118.337 Y137.3 E39.37928
G1 X118.377 Y136.553 E39.4166
G1 X118.496 Y135.815 E39.45389
G1 X118.694 Y135.093 E39.49124
G1 X118.967 Y134.397 E39.52854
G1 X119.314 Y133.734 E39.56588
G1 X119.729 Y133.111 E39.60322
G1 X120.208 Y132.537 E39.64052
G1 X120.745 Y132.016 E39.67785
G0 F3600 X120.602 Y132.702
G1 F1800 X121.136 Y132.209 E39.71411
G1 X121.721 Y131.779 E39.75033
G1 X122.35 Y131.415 E39.78659
G1 X123.015 Y131.122 E39.82284
G1 X123.708 Y130.904 E39.85909
G1 X124.42 Y130.764 E39.89529
G1 X125.337 Y130.7 E39.94115
G1 X174.663 Y130.7 E42.40203
G1 X175.388 Y130.74 E42.43826
G1 X176.105 Y130.859 E42.47452
G1 X176.804 Y131.057 E42.51076
G1 X177.477 Y131.33 E42.547
G1 X178.116 Y131.675 E42.58323
G1 X178.713 Y132.089 E42.61947
G1 X179.261 Y132.565 E42.65569
G1 X179.754 Y133.099 E42.69195
G1 X180.184 Y133.684 E42.72817
G1 X180.548 Y134.313 E42.76442
G1 X180.841 Y134.978 E42.80068
G1 X181.059 Y135.671 E42.83692
G1 X181.199 Y136.383 E42.87312
G1 X181.263 Y137.3 E42.91899
G1 X181.263 Y162.7 E44.1862
G1 X181.223 Y163.425 E44.22242
G1 X181.104 Y164.142 E44.25868
G1 X180.906 Y164.841 E44.29493
G1 X180.633 Y165.514 E44.33116
G1 X180.288 Y166.153 E44.36739
G1 X179.874 Y166.75 E44.40364
G1 X179.66 Y166.997 E44.41994
G1 X179.754 Y167.099 E44.42686
G1 X180.184 Y167.684 E44.46308
G1 X180.548 Y168.313 E44.49934
G1 X180.841 Y168.978 E44.53559
G1 X181.059 Y169.671 E44.57184
G1 X181.199 Y170.383 E44.60804
G1 X181.263 Y171.3 E44.6539
G1 X181.263 Y196.7 E45.92111
G1 X181.223 Y197.425 E45.95734
G1 X181.104 Y198.142 E45.9936
G1 X180.906 Y198.841 E46.02984
G1 X180.633 Y199.514 E46.06608
G1 X180.288 Y200.153 E46.10231
G1 X179.874 Y200.75 E46.13855
G1 X179.398 Y201.298 E46.17477
G1 X178.864 Y201.791 E46.21102
G1 X178.279 Y202.221 E46.24725
G1 X177.65 Y202.585 E46.2835
G1 X176.985 Y202.878 E46.31976
G1 X176.292 Y203.096 E46.356
G1 X175.58 Y203.236 E46.3922
G1 X174.663 Y203.3 E46.43806
G1 X125.337 Y203.3 E48.89895
G1 X124.612 Y203.26 E48.93517
G1 X123.895 Y203.141 E48.97143
G1 X123.196 Y202.943 E49.00768
G1 X122.523 Y202.67 E49.04391
G1 X121.884 Y202.325 E49.08014
G1 X121.287 Y201.911 E49.11639
G1 X120.739 Y201.435 E49.1526
G1 X120.246 Y200.901 E49.18886
G1 X119.816 Y200.316 E49.22508
G1 X119.452 Y199.687 E49.26134
G1 X119.159 Y199.022 E49.29759
G1 X118.941 Y198.329 E49.33384
G1 X118.801 Y197.617 E49.37004
G1 X118.737 Y196.7 E49.4159
G1 X118.737 Y171.3 E50.68311
G1 X118.777 Y170.575 E50.71934
G1 X118.896 Y169.858 E50.7556
G1 X119.094 Y169.159 E50.79184
G1 X119.367 Y168.486 E50.82808
G1 X119.712 Y167.847 E50.86431
G1 X120.126 Y167.25 E50.90055
G1 X120.34 Y167.003 E50.91686
G1 X120.246 Y166.901 E50.92378
G1 X119.816 Y166.316 E50.96
G1 X119.452 Y165.687 E50.99626
G1 X119.159 Y165.022 E51.03251
G1 X118.941 Y164.329 E51.06875
G1 X118.801 Y163.617 E51.10496
G1 X118.737 Y162.7 E51.15082
G1 X118.737 Y137.3 E52.41803
G1 X118.777 Y136.575 E52.45425
G1 X118.896 Y135.858 E52.49051
G1 X119.094 Y135.159 E52.52676
G1 X119.367 Y134.486 E52.56299
G1 X119.712 Y133.847 E52.59922
G1 X120.126 Y133.25 E52.63547
G1 X120.602 Y132.702 E52.67168
G0 F3600 X120.996 Y132.873
G1 F1800 X121.526 Y132.409 E52.70682
G1 X122.105 Y132.009 E52.74193
G1 X122.726 Y131.677 E52.77707
G1 X123.38 Y131.417 E52.81218
G1 X124.06 Y131.233 E52.84732
G1 X124.756 Y131.127 E52.88245
G1 X125.337 Y131.1 E52.91146
G1 X174.663 Y131.1 E55.37235
G1 X175.366 Y131.14 E55.40748
G1 X176.06 Y131.259 E55.44261
G1 X176.735 Y131.457 E55.4777
G1 X177.384 Y131.729 E55.51281
G1 X177.998 Y132.074 E55.54795
G1 X178.569 Y132.485 E55.58305
G1 X179.09 Y132.959 E55.61819
G1 X179.554 Y133.489 E55.65333
G1 X179.954 Y134.068 E55.68844
G1 X180.286 Y134.689 E55.72357
G1 X180.546 Y135.343 E55.75868
G1 X180.73 Y136.023 E55.79383
G1 X180.836 Y136.719 E55.82895
G1 X180.863 Y137.3 E55.85797
G1 X180.863 Y162.7 E57.12518
G1 X180.823 Y163.403 E57.16031
G1 X180.704 Y164.097 E57.19544
G1 X180.506 Y164.772 E57.23053
G1 X180.234 Y165.421 E57.26564
G1 X179.889 Y166.035 E57.30078
G1 X179.478 Y166.606 E57.33588
G1 X179.123 Y166.996 E57.36219
G1 X179.554 Y167.489 E57.39486
G1 X179.954 Y168.068 E57.42997
G1 X180.286 Y168.689 E57.4651
G1 X180.546 Y169.343 E57.50021
G1 X180.73 Y170.023 E57.53536
G1 X180.836 Y170.719 E57.57048
G1 X180.863 Y171.3 E57.5995
G1 X180.863 Y196.7 E58.86671
G1 X180.823 Y197.403 E58.90184
G1 X180.704 Y198.097 E58.93697
G1 X180.506 Y198.772 E58.97206
G1 X180.234 Y199.421 E59.00717
G1 X179.889 Y200.035 E59.04231
G1 X179.478 Y200.606 E59.07741
G1 X179.004 Y201.127 E59.11255
G1 X178.474 Y201.591 E59.14769
G1 X177.895 Y201.991 E59.1828
G1 X177.274 Y202.323 E59.21793
G1 X176.62 Y202.583 E59.25304
G1 X175.94 Y202.767 E59.28819
G1 X175.244 Y202.873 E59.32331
G1 X174.663 Y202.9 E59.35233
G1 X125.337 Y202.9 E61.81322
G1 X124.634 Y202.86 E61.84834
G1 X123.94 Y202.741 E61.88347
G1 X123.265 Y202.543 E61.91857
G1 X122.616 Y202.271 E61.95368
G1 X122.002 Y201.926 E61.98881
G1 X121.431 Y201.515 E62.02391
G1 X120.91 Y201.041 E62.05905
G1 X120.446 Y200.511 E62.0942
G1 X120.046 Y199.932 E62.12931
G1 X119.714 Y199.311 E62.16444
G1 X119.454 Y198.657 E62.19955
G1 X119.27 Y197.977 E62.23469
G1 X119.164 Y197.281 E62.26982
G1 X119.137 Y196.7 E62.29884
G1 X119.137 Y171.3 E63.56605
G1 X119.177 Y170.597 E63.60118
G1 X119.296 Y169.903 E63.63631
G1 X119.494 Y169.228 E63.6714
G1 X119.766 Y168.579 E63.70651
G1 X120.111 Y167.965 E63.74165
G1 X120.522 Y167.394 E63.77674
G1 X120.877 Y167.004 E63.80306
G1 X120.446 Y166.511 E63.83573
G1 X120.046 Y165.932 E63.87083
G1 X119.714 Y165.311 E63.90597
G1 X119.454 Y164.657 E63.94108
G1 X119.27 Y163.977 E63.97622
G1 X119.164 Y163.281 E64.01135
G1 X119.137 Y162.7 E64.04037
G1 X119.137 Y137.3 E65.30758
G1 X119.177 Y136.597 E65.34271
G1 X119.296 Y135.903 E65.37784
G1 X119.494 Y135.228 E65.41293
G1 X119.766 Y134.579 E65.44804
G1 X120.111 Y133.965 E65.48317
G1 X120.522 Y133.394 E65.51827
G1 X120.996 Y132.873 E65.55341
G0 F3600 X121.39 Y133.051
G1 F1800 X121.915 Y132.617 E65.5874
G1 X122.487 Y132.248 E65.62136
G1 X123.099 Y131.949 E65.65534
G1 X123.741 Y131.724 E65.68928
G1 X124.406 Y131.575 E65.72328
G1 X125.337 Y131.5 E65.76988
G1 X174.663 Y131.5 E68.23076
G1 X175.343 Y131.54 E68.26475
G1 X176.013 Y131.659 E68.29869
G1 X176.665 Y131.856 E68.33268
G1 X177.289 Y132.128 E68.36664
G1 X177.877 Y132.472 E68.40062
G1 X178.421 Y132.882 E68.43461
G1 X178.912 Y133.353 E68.46855
G1 X179.346 Y133.878 E68.50254
G1 X179.715 Y134.45 E68.5365
G1 X180.014 Y135.062 E68.57048
G1 X180.239 Y135.704 E68.60442
G1 X180.388 Y136.369 E68.63842
G1 X180.463 Y137.3 E68.68502
G1 X180.463 Y162.7 E69.95223
G1 X180.423 Y163.38 E69.98621
G1 X180.304 Y164.05 E70.02016
G1 X180.107 Y164.702 E70.05414
G1 X179.835 Y165.326 E70.0881
G1 X179.491 Y165.914 E70.12209
G1 X179.081 Y166.458 E70.15607
G1 X178.61 Y166.949 E70.19002
G1 X178.546 Y167.002 E70.19416
G1 X178.912 Y167.353 E70.21946
G1 X179.346 Y167.878 E70.25345
G1 X179.715 Y168.45 E70.28741
G1 X180.014 Y169.062 E70.32139
G1 X180.239 Y169.704 E70.35533
G1 X180.388 Y170.369 E70.38933
G1 X180.463 Y171.3 E70.43593
G1 X180.463 Y196.7 E71.70314
G1 X180.423 Y197.38 E71.73712
G1 X180.304 Y198.05 E71.77107
G1 X180.107 Y198.702 E71.80505
G1 X179.835 Y199.326 E71.83901
G1 X179.491 Y199.914 E71.873
G1 X179.081 Y200.458 E71.90698
G1 X178.61 Y200.949 E71.94093
G1 X178.085 Y201.383 E71.97491
G1 X177.513 Y201.752 E72.00887
G1 X176.901 Y202.051 E72.04285
G1 X176.259 Y202.276 E72.07679
G1 X175.594 Y202.425 E72.11079
G1 X174.663 Y202.5 E72.15739
G1 X125.337 Y202.5 E74.61828
