( Made using CamBam - http://www.cambam.info )
( plate_bottom 10/6/2018 9:37:16 PM )
( T0 : 0.125 )
G20 G90 G64 G40
G0 Z0.25
( T0 : 0.125 )
T0 M6
( Profile1 )
G17
G0 X0.3517 Y0.1759
G0 Z0.0625
G1 F10.0 Z-0.05
G3 F50.0 X0.362 Y0.165 I0.0233 J0.0116
G3 X0.401 Y0.1875 I0.013 J0.0225
G3 X0.362 Y0.21 I-0.026 J0.0
G3 X0.3517 Y0.1759 I0.013 J-0.0225
G1 F10.0 Z-0.1
G3 F50.0 X0.362 Y0.165 I0.0233 J0.0116
G3 X0.401 Y0.1875 I0.013 J0.0225
G3 X0.362 Y0.21 I-0.026 J0.0
G3 X0.3517 Y0.1759 I0.013 J-0.0225
G0 Z0.25
G0 X2.349 Y0.1874
G0 Z0.0625
G1 F10.0 Z-0.05
G3 F50.0 X2.362 Y0.165 I0.026 J0.0001
G3 X2.401 Y0.1875 I0.013 J0.0225
G3 X2.362 Y0.21 I-0.026 J0.0
G3 X2.349 Y0.1874 I0.013 J-0.0225
G1 F10.0 Z-0.1
G3 F50.0 X2.362 Y0.165 I0.026 J0.0001
G3 X2.401 Y0.1875 I0.013 J0.0225
G3 X2.362 Y0.21 I-0.026 J0.0
G3 X2.349 Y0.1874 I0.013 J-0.0225
G0 Z0.25
G0 X2.3746 Y2.2115
G0 Z0.0625
G1 F10.0 Z-0.05
G3 F50.0 X2.4055 Y2.242 I0.0004 J0.0305
G3 X2.3598 Y2.2684 I-0.0305 J0.0
G3 Y2.2156 I0.0153 J-0.0264
G3 X2.3746 Y2.2115 I0.0153 J0.0264
G1 F10.0 Z-0.1
G3 F50.0 X2.4055 Y2.242 I0.0004 J0.0305
G3 X2.3598 Y2.2684 I-0.0305 J0.0
G3 Y2.2156 I0.0153 J-0.0264
G3 X2.3746 Y2.2115 I0.0153 J0.0264
G0 Z0.25
G0 X2.8446 Y2.2401
G0 Z0.0625
G1 F10.0 Z-0.05
G3 F50.0 X2.8598 Y2.2156 I0.0304 J0.0019
G3 X2.9055 Y2.242 I0.0153 J0.0264
G3 X2.8598 Y2.2684 I-0.0305 J0.0
G3 X2.8446 Y2.2401 I0.0153 J-0.0264
G1 F10.0 Z-0.1
G3 F50.0 X2.8598 Y2.2156 I0.0304 J0.0019
G3 X2.9055 Y2.242 I0.0153 J0.0264
G3 X2.8598 Y2.2684 I-0.0305 J0.0
G3 X2.8446 Y2.2401 I0.0153 J-0.0264
G0 Z0.25
G0 X2.8744 Y3.6535
G0 Z0.0625
G1 F10.0 Z-0.05
G3 F50.0 X2.9055 Y3.684 I0.0006 J0.0305
G3 X2.8598 Y3.7104 I-0.0305 J0.0
G3 Y3.6576 I0.0153 J-0.0264
G3 X2.8744 Y3.6535 I0.0152 J0.0264
G1 F10.0 Z-0.1
G3 F50.0 X2.9055 Y3.684 I0.0006 J0.0305
G3 X2.8598 Y3.7104 I-0.0305 J0.0
G3 Y3.6576 I0.0153 J-0.0264
G3 X2.8744 Y3.6535 I0.0152 J0.0264
G0 Z0.25
G0 X2.4054 Y3.6821
G0 Z0.0625
G1 F10.0 Z-0.05
G3 F50.0 X2.4055 Y3.684 I-0.0304 J0.0019
G3 X2.3598 Y3.7104 I-0.0305 J0.0
G3 Y3.6576 I0.0153 J-0.0264
G3 X2.4054 Y3.6821 I0.0153 J0.0264
G1 F10.0 Z-0.1
G3 F50.0 X2.4055 Y3.684 I-0.0304 J0.0019
G3 X2.3598 Y3.7104 I-0.0305 J0.0
G3 Y3.6576 I0.0153 J-0.0264
G3 X2.4054 Y3.6821 I0.0153 J0.0264
G0 Z0.25
G0 X4.8753 Y3.8657
G0 Z0.0625
G1 F10.0 Z-0.05
G3 F50.0 X4.9375 Y3.7667 I0.1247 J0.0093
G3 X5.125 Y3.875 I0.0625 J0.1083
G3 X4.9375 Y3.9833 I-0.125 J0.0
G3 X4.8753 Y3.8657 I0.0625 J-0.1083
G1 F10.0 Z-0.1
G3 F50.0 X4.9375 Y3.7667 I0.1247 J0.0093
G3 X5.125 Y3.875 I0.0625 J0.1083
G3 X4.9375 Y3.9833 I-0.125 J0.0
G3 X4.8753 Y3.8657 I0.0625 J-0.1083
G0 Z0.25
G0 X7.0946 Y3.6865
G0 Z0.0625
G1 F10.0 Z-0.05
G3 F50.0 X7.1098 Y3.6576 I0.0304 J-0.0025
G3 X7.1555 Y3.684 I0.0153 J0.0264
G3 X7.1098 Y3.7104 I-0.0305 J0.0
G3 X7.0946 Y3.6865 I0.0153 J-0.0264
G1 F10.0 Z-0.1
G3 F50.0 X7.1098 Y3.6576 I0.0304 J-0.0025
G3 X7.1555 Y3.684 I0.0153 J0.0264
G3 X7.1098 Y3.7104 I-0.0305 J0.0
G3 X7.0946 Y3.6865 I0.0153 J-0.0264
G0 Z0.25
G0 X7.5945 Y3.6841
G0 Z0.0625
G1 F10.0 Z-0.05
G3 F50.0 X7.6098 Y3.6576 I0.0305 J-0.0001
G3 X7.6555 Y3.684 I0.0153 J0.0264
G3 X7.6098 Y3.7104 I-0.0305 J0.0
G3 X7.5945 Y3.6841 I0.0153 J-0.0264
G1 F10.0 Z-0.1
G3 F50.0 X7.6098 Y3.6576 I0.0305 J-0.0001
G3 X7.6555 Y3.684 I0.0153 J0.0264
G3 X7.6098 Y3.7104 I-0.0305 J0.0
G3 X7.5945 Y3.6841 I0.0153 J-0.0264
G0 Z0.25
G0 X7.6244 Y2.2805
G0 Z0.0625
G1 F10.0 Z-0.05
G3 F50.0 X7.6098 Y2.2764 I0.0006 J-0.0305
G3 Y2.2236 I0.0153 J-0.0264
G3 X7.6555 Y2.25 I0.0153 J0.0264
G3 X7.6244 Y2.2805 I-0.0305 J0.0
G1 F10.0 Z-0.1
G3 F50.0 X7.6098 Y2.2764 I0.0006 J-0.0305
G3 Y2.2236 I0.0153 J-0.0264
G3 X7.6555 Y2.25 I0.0153 J0.0264
G3 X7.6244 Y2.2805 I-0.0305 J0.0
G0 Z0.25
G0 X7.1554 Y2.2443
G0 Z0.0625
G1 F10.0 Z-0.05
G3 F50.0 X7.1098 Y2.2684 I-0.0304 J-0.0023
G3 Y2.2156 I0.0153 J-0.0264
G3 X7.1555 Y2.242 I0.0153 J0.0264
G3 X7.1554 Y2.2443 I-0.0305 J0.0
G1 F10.0 Z-0.1
G3 F50.0 X7.1098 Y2.2684 I-0.0304 J-0.0023
G3 Y2.2156 I0.0153 J-0.0264
G3 X7.1555 Y2.242 I0.0153 J0.0264
G3 X7.1554 Y2.2443 I-0.0305 J0.0
G0 Z0.25
G0 X7.6192 Y0.2128
G0 Z0.0625
G1 F10.0 Z-0.05
G3 F50.0 X7.612 Y0.21 I0.0058 J-0.0253
G3 Y0.165 I0.013 J-0.0225
G3 X7.651 Y0.1875 I0.013 J0.0225
G3 X7.6192 Y0.2128 I-0.026 J0.0
G1 F10.0 Z-0.1
G3 F50.0 X7.612 Y0.21 I0.0058 J-0.0253
G3 Y0.165 I0.013 J-0.0225
G3 X7.651 Y0.1875 I0.013 J0.0225
G3 X7.6192 Y0.2128 I-0.026 J0.0
G0 Z0.25
G0 X9.599 Y0.1878
G0 Z0.0625
G1 F10.0 Z-0.05
G3 F50.0 X9.612 Y0.165 I0.026 J-0.0003
G3 X9.651 Y0.1875 I0.013 J0.0225
G3 X9.612 Y0.21 I-0.026 J0.0
G3 X9.599 Y0.1878 I0.013 J-0.0225
G1 F10.0 Z-0.1
G3 F50.0 X9.612 Y0.165 I0.026 J-0.0003
G3 X9.651 Y0.1875 I0.013 J0.0225
G3 X9.612 Y0.21 I-0.026 J0.0
G3 X9.599 Y0.1878 I0.013 J-0.0225
G0 Z0.25
G0 X9.5658 Y5.6532
G0 Z0.0625
G1 F10.0 Z-0.05
G3 F50.0 X9.5916 Y5.6792 I-0.0002 J0.026
G3 X9.5526 Y5.7018 I-0.026 J0.0
G3 Y5.6567 I0.013 J-0.0225
G3 X9.5658 Y5.6532 I0.013 J0.0225
G1 F10.0 Z-0.1
G3 F50.0 X9.5916 Y5.6792 I-0.0002 J0.026
G3 X9.5526 Y5.7018 I-0.026 J0.0
G3 Y5.6567 I0.013 J-0.0225
G3 X9.5658 Y5.6532 I0.013 J0.0225
G0 Z0.25
G0 X8.8039 Y6.6373
G0 Z0.0625
G1 F10.0 Z-0.05
G3 F50.0 X8.814 Y6.6579 I-0.0159 J0.0206
G3 X8.775 Y6.6804 I-0.026 J0.0
G3 Y6.6354 I0.013 J-0.0225
G3 X8.8039 Y6.6373 I0.013 J0.0225
G1 F10.0 Z-0.1
G3 F50.0 X8.814 Y6.6579 I-0.0159 J0.0206
G3 X8.775 Y6.6804 I-0.026 J0.0
G3 Y6.6354 I0.013 J-0.0225
G3 X8.8039 Y6.6373 I0.013 J0.0225
G0 Z0.25
G0 X5.5174 Y9.0026
G0 Z0.0625
G1 F10.0 Z-0.05
G3 F50.0 X5.6375 Y9.375 I-0.5174 J0.3724
G3 X4.6813 Y9.9271 I-0.6375 J0.0
G3 Y8.8229 I0.3188 J-0.5521
G3 X5.5174 Y9.0026 I0.3188 J0.5521
G1 F10.0 Z-0.1
G3 F50.0 X5.6375 Y9.375 I-0.5174 J0.3724
G3 X4.6813 Y9.9271 I-0.6375 J0.0
G3 Y8.8229 I0.3188 J-0.5521
G3 X5.5174 Y9.0026 I0.3188 J0.5521
G0 Z0.25
G0 X5.0182 Y8.4926
G0 Z0.0625
G1 F10.0 Z-0.05
G3 F50.0 X4.987 Y8.4965 I-0.0182 J-0.0186
G3 Y8.4515 I0.013 J-0.0225
G3 X5.026 Y8.474 I0.013 J0.0225
G3 X5.0182 Y8.4926 I-0.026 J0.0
G1 F10.0 Z-0.1
G3 F50.0 X4.987 Y8.4965 I-0.0182 J-0.0186
G3 Y8.4515 I0.013 J-0.0225
G3 X5.026 Y8.474 I0.013 J0.0225
G3 X5.0182 Y8.4926 I-0.026 J0.0
G0 Z0.25
G0 X5.7674 Y9.8029
G0 Z0.0625
G1 F10.0 Z-0.05
G3 F50.0 X5.8063 Y9.8255 I0.0129 J0.0226
G3 X5.7673 Y9.848 I-0.026 J0.0
G3 Y9.803 I0.013 J-0.0225
G1 X5.7674 Y9.8029
G1 F10.0 Z-0.1
G3 F50.0 X5.8063 Y9.8255 I0.0129 J0.0226
G3 X5.7673 Y9.848 I-0.026 J0.0
G3 Y9.803 I0.013 J-0.0225
G1 X5.7674 Y9.8029
G0 Z0.25
G0 X4.2457 Y9.8251
G0 Z0.0625
G1 F10.0 Z-0.05
G1 F50.0 Y9.8255
G3 X4.2067 Y9.848 I-0.026 J0.0
G3 Y9.803 I0.013 J-0.0225
G3 X4.2457 Y9.8251 I0.013 J0.0225
G1 F10.0 Z-0.1
G1 F50.0 Y9.8255
G3 X4.2067 Y9.848 I-0.026 J0.0
G3 Y9.803 I0.013 J-0.0225
G3 X4.2457 Y9.8251 I0.013 J0.0225
G0 Z0.25
G0 X1.23 Y6.6767
G0 Z0.0625
G1 F10.0 Z-0.05
G3 F50.0 X1.199 Y6.6804 I-0.018 J-0.0188
G3 Y6.6354 I0.013 J-0.0225
G3 X1.238 Y6.6579 I0.013 J0.0225
G3 X1.23 Y6.6767 I-0.026 J0.0
G1 F10.0 Z-0.1
G3 F50.0 X1.199 Y6.6804 I-0.018 J-0.0188
G3 Y6.6354 I0.013 J-0.0225
G3 X1.238 Y6.6579 I0.013 J0.0225
G3 X1.23 Y6.6767 I-0.026 J0.0
G0 Z0.25
G0 X0.4506 Y5.6996
G0 Z0.0625
G1 F10.0 Z-0.05
G3 F50.0 X0.4214 Y5.7018 I-0.0162 J-0.0203
G3 Y5.6567 I0.013 J-0.0225
G3 X0.4604 Y5.6792 I0.013 J0.0225
G3 X0.4506 Y5.6996 I-0.026 J0.0
G1 F10.0 Z-0.1
G3 F50.0 X0.4214 Y5.7018 I-0.0162 J-0.0203
G3 Y5.6567 I0.013 J-0.0225
G3 X0.4604 Y5.6792 I0.013 J0.0225
G3 X0.4506 Y5.6996 I-0.026 J0.0
( Profile2 )
G0 Z0.25
G0 X-0.0076 Y-0.0076
G0 Z0.0625
G1 F10.0 Z-0.05
G3 F50.0 X0.125 Y-0.0625 I0.1326 J0.1326
G1 X9.875
G3 X10.0625 Y0.125 I0.0 J0.1875
G1 Y1.125
G3 X9.875 Y1.3125 I-0.1875 J0.0
G1 X8.125
G2 X7.9375 Y1.5 I0.0 J0.1875
G1 Y4.184
G2 X8.125 Y4.3715 I0.1875 J0.0
G1 X9.75
G3 X10.0625 Y4.684 I0.0 J0.3125
G1 Y5.3468
G3 X9.9947 Y5.5412 I-0.3125 J0.0
G1 X5.999 Y10.5694
G3 X5.7543 Y10.6875 I-0.2447 J-0.1944
G1 X4.2457
G3 X4.001 Y10.5694 I0.0 J-0.3125
G1 X0.0053 Y5.5412
G3 X-0.0625 Y5.3468 I0.2447 J-0.1944
G1 Y4.684
G3 X0.25 Y4.3715 I0.3125 J0.0
G1 X1.875
G2 X2.0625 Y4.184 I0.0 J-0.1875
G1 Y1.5
G2 X1.875 Y1.3125 I-0.1875 J0.0
G1 X0.125
G3 X-0.0625 Y1.125 I0.0 J-0.1875
G1 Y0.125
G3 X-0.0076 Y-0.0076 I0.1875 J0.0
G1 F10.0 Z-0.1
G3 F50.0 X0.125 Y-0.0625 I0.1326 J0.1326
G1 X9.875
G3 X10.0625 Y0.125 I0.0 J0.1875
G1 Y1.125
G3 X9.875 Y1.3125 I-0.1875 J0.0
G1 X8.125
G2 X7.9375 Y1.5 I0.0 J0.1875
G1 Y4.184
G2 X8.125 Y4.3715 I0.1875 J0.0
G1 X9.75
G3 X10.0625 Y4.684 I0.0 J0.3125
G1 Y5.3468
G3 X9.9947 Y5.5412 I-0.3125 J0.0
G1 X5.999 Y10.5694
G3 X5.7543 Y10.6875 I-0.2447 J-0.1944
G1 X4.2457
G3 X4.001 Y10.5694 I0.0 J-0.3125
G1 X0.0053 Y5.5412
G3 X-0.0625 Y5.3468 I0.2447 J-0.1944
G1 Y4.684
G3 X0.25 Y4.3715 I0.3125 J0.0
G1 X1.875
G2 X2.0625 Y4.184 I0.0 J-0.1875
G1 Y1.5
G2 X1.875 Y1.3125 I-0.1875 J0.0
G1 X0.125
G3 X-0.0625 Y1.125 I0.0 J-0.1875
G1 Y0.125
G3 X-0.0076 Y-0.0076 I0.1875 J0.0
G0 Z0.25
M30
