( Made using CamBam - http://www.cambam.info )
( top_plate 10/6/2018 9:01:26 PM )
( T0 : 0.125 )
G20 G90 G64 G40
G0 Z0.25
( T0 : 0.125 )
T0 M6
( motor_drills )
G17
G0 X4.625 Y3.875
G98
G83 X4.625 Y3.875 Z-0.1 Q0.04 R0.0 F10.0
G83 X5.0 Z-0.1
G83 Y4.1885 Z-0.1
G83 X5.375 Y3.875 Z-0.1
G83 X5.0 Y3.5615 Z-0.1
G80
( cutouts )
G0 Z0.25
G0 X0.3517 Y0.1759
G0 Z0.0625
G1 F10.0 Z-0.05
G3 F40.0 X0.362 Y0.165 I0.0233 J0.0116
G3 X0.401 Y0.1875 I0.013 J0.0225
G3 X0.362 Y0.21 I-0.026 J0.0
G3 X0.3517 Y0.1759 I0.013 J-0.0225
G0 Z0.25
G0 X2.349 Y0.1874
G0 Z0.0625
G1 F10.0 Z-0.05
G3 F40.0 X2.362 Y0.165 I0.026 J0.0001
G3 X2.401 Y0.1875 I0.013 J0.0225
G3 X2.362 Y0.21 I-0.026 J0.0
G3 X2.349 Y0.1874 I0.013 J-0.0225
G0 Z0.25
G0 X2.3746 Y2.2115
G0 Z0.0625
G1 F10.0 Z-0.05
G3 F40.0 X2.4055 Y2.242 I0.0004 J0.0305
G3 X2.3598 Y2.2684 I-0.0305 J0.0
G3 Y2.2156 I0.0153 J-0.0264
G3 X2.3746 Y2.2115 I0.0153 J0.0264
G0 Z0.25
G0 X2.8446 Y2.2401
G0 Z0.0625
G1 F10.0 Z-0.05
G3 F40.0 X2.8598 Y2.2156 I0.0304 J0.0019
G3 X2.9055 Y2.242 I0.0153 J0.0264
G3 X2.8598 Y2.2684 I-0.0305 J0.0
G3 X2.8446 Y2.2401 I0.0153 J-0.0264
G0 Z0.25
G0 X2.8744 Y3.6535
G0 Z0.0625
G1 F10.0 Z-0.05
G3 F40.0 X2.9055 Y3.684 I0.0006 J0.0305
G3 X2.8598 Y3.7104 I-0.0305 J0.0
G3 Y3.6576 I0.0153 J-0.0264
G3 X2.8744 Y3.6535 I0.0152 J0.0264
G0 Z0.25
G0 X2.4054 Y3.6821
G0 Z0.0625
G1 F10.0 Z-0.05
G3 F40.0 X2.4055 Y3.684 I-0.0304 J0.0019
G3 X2.3598 Y3.7104 I-0.0305 J0.0
G3 Y3.6576 I0.0153 J-0.0264
G3 X2.4054 Y3.6821 I0.0153 J0.0264
G0 Z0.25
G0 X0.4526 Y5.6607
G0 Z0.0625
G1 F10.0 Z-0.05
G3 F40.0 X0.4604 Y5.6792 I-0.0183 J0.0185
G3 X0.4214 Y5.7018 I-0.026 J0.0
G3 Y5.6567 I0.013 J-0.0225
G3 X0.4526 Y5.6607 I0.013 J0.0225
G0 Z0.25
G0 X1.1963 Y6.6372
G0 Z0.0625
G1 F10.0 Z-0.05
G3 F40.0 X1.199 Y6.6354 I0.0158 J0.0207
G3 X1.238 Y6.6579 I0.013 J0.0225
G3 X1.199 Y6.6804 I-0.026 J0.0
G3 X1.1963 Y6.6372 I0.013 J-0.0225
G0 Z0.25
G0 X4.4826 Y9.0026
G0 Z0.0625
G1 F10.0 Z-0.05
G3 F40.0 X4.6813 Y8.8229 I0.5174 J0.3724
G3 X5.6375 Y9.375 I0.3188 J0.5521
G3 X4.6813 Y9.9271 I-0.6375 J0.0
G3 X4.4826 Y9.0026 I0.3188 J-0.5521
G0 Z0.25
G0 X8.7651 Y6.6703
G0 Z0.0625
G1 F10.0 Z-0.05
G3 F40.0 X8.775 Y6.6354 I0.0228 J-0.0124
G3 X8.814 Y6.6579 I0.013 J0.0225
G3 X8.775 Y6.6804 I-0.026 J0.0
G3 X8.7651 Y6.6703 I0.013 J-0.0225
G0 Z0.25
G0 X9.5493 Y5.6995
G0 Z0.0625
G1 F10.0 Z-0.05
G3 F40.0 X9.5526 Y5.6567 I0.0163 J-0.0202
G3 X9.5916 Y5.6792 I0.013 J0.0225
G3 X9.5526 Y5.7018 I-0.026 J0.0
G3 X9.5493 Y5.6995 I0.013 J-0.0225
G0 Z0.25
G0 X7.6461 Y3.7061
G0 Z0.0625
G1 F10.0 Z-0.05
G3 F40.0 X7.6098 Y3.7104 I-0.0211 J-0.0221
G3 Y3.6576 I0.0153 J-0.0264
G3 X7.6555 Y3.684 I0.0153 J0.0264
G3 X7.6461 Y3.7061 I-0.0305 J0.0
G0 Z0.25
G0 X7.1555 Y3.6853
G0 Z0.0625
G1 F10.0 Z-0.05
G3 F40.0 X7.1098 Y3.7104 I-0.0305 J-0.0013
G3 Y3.6576 I0.0153 J-0.0264
G3 X7.1555 Y3.684 I0.0153 J0.0264
G3 Y3.6853 I-0.0305 J0.0
G0 Z0.25
G0 X7.1256 Y2.2725
G0 Z0.0625
G1 F10.0 Z-0.05
G3 F40.0 X7.1098 Y2.2684 I-0.0006 J-0.0305
G3 Y2.2156 I0.0153 J-0.0264
G3 X7.1555 Y2.242 I0.0153 J0.0264
G3 X7.1256 Y2.2725 I-0.0305 J0.0
G0 Z0.25
G0 X7.5945 Y2.2514
G0 Z0.0625
G1 F10.0 Z-0.05
G3 F40.0 X7.6098 Y2.2236 I0.0305 J-0.0014
G3 X7.6555 Y2.25 I0.0153 J0.0264
G3 X7.6098 Y2.2764 I-0.0305 J0.0
G3 X7.5945 Y2.2514 I0.0153 J-0.0264
G0 Z0.25
G0 X7.6246 Y0.2135
G0 Z0.0625
G1 F10.0 Z-0.05
G3 F40.0 X7.612 Y0.21 I0.0004 J-0.026
G3 Y0.165 I0.013 J-0.0225
G3 X7.651 Y0.1875 I0.013 J0.0225
G3 X7.6246 Y0.2135 I-0.026 J0.0
G0 Z0.25
G0 X9.599 Y0.1878
G0 Z0.0625
G1 F10.0 Z-0.05
G3 F40.0 X9.612 Y0.165 I0.026 J-0.0003
G3 X9.651 Y0.1875 I0.013 J0.0225
G3 X9.612 Y0.21 I-0.026 J0.0
G3 X9.599 Y0.1878 I0.013 J-0.0225
G1 F10.0 Z-0.1
G3 F40.0 X9.612 Y0.165 I0.026 J-0.0003
G3 X9.651 Y0.1875 I0.013 J0.0225
G3 X9.612 Y0.21 I-0.026 J0.0
G3 X9.599 Y0.1878 I0.013 J-0.0225
G0 Z0.25
G0 X7.651 Y0.1875
G0 Z0.0125
G1 F10.0 Z-0.1
G3 F40.0 X7.612 Y0.21 I-0.026 J0.0
G3 Y0.165 I0.013 J-0.0225
G3 X7.651 Y0.1875 I0.013 J0.0225
G0 Z0.25
G0 X7.6254 Y2.2195
G0 Z0.0125
G1 F10.0 Z-0.1
G3 F40.0 X7.6555 Y2.25 I-0.0004 J0.0305
G3 X7.6098 Y2.2764 I-0.0305 J0.0
G3 Y2.2236 I0.0153 J-0.0264
G3 X7.6254 Y2.2195 I0.0153 J0.0264
G0 Z0.25
G0 X7.1555 Y2.2406
G0 Z0.0125
G1 F10.0 Z-0.1
G3 F40.0 Y2.242 I-0.0305 J0.0014
G3 X7.1098 Y2.2684 I-0.0305 J0.0
G3 Y2.2156 I0.0153 J-0.0264
G3 X7.1555 Y2.2406 I0.0153 J0.0264
G0 Z0.25
G0 X7.1256 Y3.6535
G0 Z0.0125
G1 F10.0 Z-0.1
G3 F40.0 X7.1555 Y3.684 I-0.0006 J0.0305
G3 X7.1098 Y3.7104 I-0.0305 J0.0
G3 Y3.6576 I0.0153 J-0.0264
G3 X7.1256 Y3.6535 I0.0153 J0.0264
G0 Z0.25
G0 X7.5946 Y3.6821
G0 Z0.0125
G1 F10.0 Z-0.1
G3 F40.0 X7.6098 Y3.6576 I0.0304 J0.0019
G3 X7.6555 Y3.684 I0.0153 J0.0264
G3 X7.6098 Y3.7104 I-0.0305 J0.0
G3 X7.5946 Y3.6821 I0.0153 J-0.0264
G0 Z0.25
G0 X9.5474 Y5.6607
G0 Z0.0125
G1 F10.0 Z-0.1
G3 F40.0 X9.5526 Y5.6567 I0.0183 J0.0185
G3 X9.5916 Y5.6792 I0.013 J0.0225
G3 X9.5526 Y5.7018 I-0.026 J0.0
G3 X9.5474 Y5.6607 I0.013 J-0.0225
G0 Z0.25
G0 X8.8037 Y6.6372
G0 Z0.0125
G1 F10.0 Z-0.1
G3 F40.0 X8.814 Y6.6579 I-0.0158 J0.0207
G3 X8.775 Y6.6804 I-0.026 J0.0
G3 Y6.6354 I0.013 J-0.0225
G3 X8.8037 Y6.6372 I0.013 J0.0225
G0 Z0.25
G0 X5.5174 Y9.0026
G0 Z0.0125
G1 F10.0 Z-0.1
G3 F40.0 X5.6375 Y9.375 I-0.5174 J0.3724
G3 X4.6813 Y9.9271 I-0.6375 J0.0
G3 Y8.8229 I0.3188 J-0.5521
G3 X5.5174 Y9.0026 I0.3188 J0.5521
G0 Z0.25
G0 X1.2349 Y6.6703
G0 Z0.0125
G1 F10.0 Z-0.1
G3 F40.0 X1.199 Y6.6804 I-0.0228 J-0.0124
G3 Y6.6354 I0.013 J-0.0225
G3 X1.238 Y6.6579 I0.013 J0.0225
G3 X1.2349 Y6.6703 I-0.026 J0.0
G0 Z0.25
G0 X0.4507 Y5.6995
G0 Z0.0125
G1 F10.0 Z-0.1
G3 F40.0 X0.4214 Y5.7018 I-0.0163 J-0.0202
G3 Y5.6567 I0.013 J-0.0225
G3 X0.4604 Y5.6792 I0.013 J0.0225
G3 X0.4507 Y5.6995 I-0.026 J0.0
G0 Z0.25
G0 X2.3539 Y3.7061
G0 Z0.0125
G1 F10.0 Z-0.1
G3 F40.0 X2.3598 Y3.6576 I0.0211 J-0.0221
G3 X2.4055 Y3.684 I0.0153 J0.0264
G3 X2.3598 Y3.7104 I-0.0305 J0.0
G3 X2.3539 Y3.7061 I0.0153 J-0.0264
G0 Z0.25
G0 X2.8445 Y3.6853
G0 Z0.0125
G1 F10.0 Z-0.1
G3 F40.0 X2.8598 Y3.6576 I0.0305 J-0.0013
G3 X2.9055 Y3.684 I0.0153 J0.0264
G3 X2.8598 Y3.7104 I-0.0305 J0.0
G3 X2.8445 Y3.6853 I0.0153 J-0.0264
G0 Z0.25
G0 X2.8744 Y2.2725
G0 Z0.0125
G1 F10.0 Z-0.1
G3 F40.0 X2.8598 Y2.2684 I0.0006 J-0.0305
G3 Y2.2156 I0.0153 J-0.0264
G3 X2.9055 Y2.242 I0.0153 J0.0264
G3 X2.8744 Y2.2725 I-0.0305 J0.0
G0 Z0.25
G0 X2.4054 Y2.2439
G0 Z0.0125
G1 F10.0 Z-0.1
G3 F40.0 X2.3598 Y2.2684 I-0.0304 J-0.0019
G3 Y2.2156 I0.0153 J-0.0264
G3 X2.4055 Y2.242 I0.0153 J0.0264
G3 X2.4054 Y2.2439 I-0.0305 J0.0
G0 Z0.25
G0 X2.3754 Y0.2135
G0 Z0.0125
G1 F10.0 Z-0.1
G3 F40.0 X2.362 Y0.21 I-0.0004 J-0.026
G3 Y0.165 I0.013 J-0.0225
G3 X2.401 Y0.1875 I0.013 J0.0225
G3 X2.3754 Y0.2135 I-0.026 J0.0
G0 Z0.25
G0 X0.401 Y0.1878
G0 Z0.0125
G1 F10.0 Z-0.1
G3 F40.0 X0.362 Y0.21 I-0.026 J-0.0003
G3 Y0.165 I0.013 J-0.0225
G3 X0.401 Y0.1875 I0.013 J0.0225
G1 Y0.1878
( cutout )
G0 Z0.25
G0 X-0.0076 Y-0.0076
G0 Z0.0625
G1 F10.0 Z-0.05
G2 F40.0 X-0.0625 Y0.125 I0.1326 J0.1326
G1 Y1.125
G2 X0.125 Y1.3125 I0.1875 J0.0
G1 X1.875
G3 X2.0625 Y1.5 I0.0 J0.1875
G1 Y4.184
G3 X1.875 Y4.3715 I-0.1875 J0.0
G1 X0.25
G2 X-0.0625 Y4.684 I0.0 J0.3125
G1 Y5.3468
G2 X0.0053 Y5.5412 I0.3125 J0.0
G1 X4.001 Y10.5694
G2 X4.2457 Y10.6875 I0.2447 J-0.1944
G1 X5.7543
G2 X5.999 Y10.5694 I0.0 J-0.3125
G1 X9.9947 Y5.5412
G2 X10.0625 Y5.3468 I-0.2447 J-0.1944
G1 Y4.684
G2 X9.75 Y4.3715 I-0.3125 J0.0
G1 X8.125
G3 X7.9375 Y4.184 I0.0 J-0.1875
G1 Y1.5
G3 X8.125 Y1.3125 I0.1875 J0.0
G1 X9.875
G2 X10.0625 Y1.125 I0.0 J-0.1875
G1 Y0.125
G2 X9.875 Y-0.0625 I-0.1875 J0.0
G1 X0.125
G2 X-0.0076 Y-0.0076 I0.0 J0.1875
G1 F10.0 Z-0.1
G2 F40.0 X-0.0625 Y0.125 I0.1326 J0.1326
G1 Y1.125
G2 X0.125 Y1.3125 I0.1875 J0.0
G1 X1.875
G3 X2.0625 Y1.5 I0.0 J0.1875
G1 Y4.184
G3 X1.875 Y4.3715 I-0.1875 J0.0
G1 X0.25
G2 X-0.0625 Y4.684 I0.0 J0.3125
G1 Y5.3468
G2 X0.0053 Y5.5412 I0.3125 J0.0
G1 X4.001 Y10.5694
G2 X4.2457 Y10.6875 I0.2447 J-0.1944
G1 X5.7543
G2 X5.999 Y10.5694 I0.0 J-0.3125
G1 X9.9947 Y5.5412
G2 X10.0625 Y5.3468 I-0.2447 J-0.1944
G1 Y4.684
G2 X9.75 Y4.3715 I-0.3125 J0.0
G1 X8.125
G3 X7.9375 Y4.184 I0.0 J-0.1875
G1 Y1.5
G3 X8.125 Y1.3125 I0.1875 J0.0
G1 X9.875
G2 X10.0625 Y1.125 I0.0 J-0.1875
G1 Y0.125
G2 X9.875 Y-0.0625 I-0.1875 J0.0
G1 X0.125
G2 X-0.0076 Y-0.0076 I0.0 J0.1875
G0 Z0.25
M30
